X: 26261
T: Meghan's Fancy
R: jig
M: 6/8
K: Dmajor
|:fdA DFA|dcB AFA|DFA dcB|GBd c2 d|
fdA DFA|dcd e2 f|gfe edc|edc d3:|
|:afa afa|bag fdA|DFA dcB|dcB A3|
afa afa|bag fdA|GBd gfe|edc d3:|

